dist/img/footer/social/inst-hover.svg

<svg width="40" height="40" viewBox="0 0 40 40" fill="none" xmlns="http://www.w3.org/2000/svg">
<path d="M26 19.9998C26 21.5911 25.3679 23.1172 24.2426 24.2424C23.1174 25.3677 21.5913 25.9998 20 25.9998C18.4087 25.9998 16.8826 25.3677 15.7573 24.2424C14.6321 23.1172 14 21.5911 14 19.9998C14 19.6578 14.036 19.3238 14.098 18.9998H12V26.9938C12 27.5498 12.45 27.9998 13.006 27.9998H26.996C27.2625 27.9993 27.5178 27.893 27.706 27.7044C27.8943 27.5158 28 27.2603 28 26.9938V18.9998H25.902C25.964 19.3238 26 19.6578 26 19.9998ZM20 23.9998C20.5254 23.9997 21.0457 23.8961 21.531 23.6949C22.0164 23.4937 22.4574 23.1989 22.8288 22.8272C23.2003 22.4556 23.4949 22.0145 23.6958 21.529C23.8968 21.0435 24.0001 20.5232 24 19.9978C23.9999 19.4724 23.8962 18.9521 23.695 18.4668C23.4939 17.9814 23.199 17.5404 22.8274 17.169C22.4558 16.7975 22.0147 16.5029 21.5292 16.302C21.0437 16.101 20.5234 15.9977 19.998 15.9978C18.9369 15.9981 17.9193 16.4199 17.1691 17.1704C16.419 17.9209 15.9977 18.9387 15.998 19.9998C15.9983 21.0609 16.42 22.0785 17.1706 22.8286C17.9211 23.5788 18.9389 24.0001 20 23.9998ZM24.8 15.7998H27.198C27.3573 15.7998 27.5101 15.7367 27.623 15.6242C27.7358 15.5117 27.7995 15.3591 27.8 15.1998V12.8018C27.8 12.6421 27.7366 12.489 27.6237 12.3761C27.5108 12.2632 27.3577 12.1998 27.198 12.1998H24.8C24.6403 12.1998 24.4872 12.2632 24.3743 12.3761C24.2614 12.489 24.198 12.6421 24.198 12.8018V15.1998C24.2 15.5298 24.47 15.7998 24.8 15.7998ZM20 0.799805C14.9078 0.799805 10.0242 2.82266 6.42354 6.42335C2.82284 10.0241 0.799988 14.9076 0.799988 19.9998C0.799988 25.092 2.82284 29.9756 6.42354 33.5763C10.0242 37.1769 14.9078 39.1998 20 39.1998C22.5214 39.1998 25.0181 38.7032 27.3475 37.7383C29.677 36.7734 31.7936 35.3591 33.5764 33.5763C35.3593 31.7934 36.7736 29.6768 37.7385 27.3473C38.7034 25.0179 39.2 22.5212 39.2 19.9998C39.2 17.4784 38.7034 14.9817 37.7385 12.6523C36.7736 10.3228 35.3593 8.20624 33.5764 6.42335C31.7936 4.64047 29.677 3.22621 27.3475 2.26132C25.0181 1.29643 22.5214 0.799805 20 0.799805ZM30 27.7778C30 28.9998 29 29.9998 27.778 29.9998H12.222C11 29.9998 9.99999 28.9998 9.99999 27.7778V12.2218C9.99999 10.9998 11 9.9998 12.222 9.9998H27.778C29 9.9998 30 10.9998 30 12.2218V27.7778Z" fill="#F4972A"/>
</svg>

<svg width="40" height="40" fill="none" xmlns="http://www.w3.org/2000/svg"><path d="M26 20a6 6 0 1 1-12 0c0-.342.036-.676.098-1H12v7.994c0 .556.45 1.006 1.006 1.006h13.99A1.006 1.006 0 0 0 28 26.994V19h-2.098c.062.324.098.658.098 1Zm-6 4a4 4 0 1 0-.001-8A4 4 0 0 0 20 24Zm4.8-8.2h2.398a.602.602 0 0 0 .602-.6v-2.398a.602.602 0 0 0-.602-.602H24.8a.602.602 0 0 0-.602.602V15.2c.002.33.272.6.602.6ZM20 .8a19.2 19.2 0 1 0 0 38.4A19.2 19.2 0 0 0 20 .8Zm10 26.978C30 29 29 30 27.778 30H12.222C11 30 10 29 10 27.778V12.222C10 11 11 10 12.222 10h15.556C29 10 30 11 30 12.222v15.556Z" fill="#F4972A"/></svg>
